src/assets/icon_course_g.svg

<svg fill="none" height="80" viewBox="0 0 80 80" width="80" xmlns="http://www.w3.org/2000/svg"><path d="m40 0c-22.0565 0-40 17.9435-40 40s17.9435 40 40 40 40-17.9435 40-40-17.9482-40-40-40zm-35.17647 42.3529h13.82117c.2071 4.8189.9929 9.5577 2.4141 14.1177h-12.24939c-2.26353-4.2635-3.65176-9.0494-3.98588-14.1177zm13.82117-4.7058h-13.82117c.33412-5.0683 1.72235-9.8542 3.98588-14.1177h12.23529c-1.4165 4.56-2.1976 9.2988-2.4 14.1177zm7.3835-14.1177h27.7459c1.553 4.5412 2.4565 9.28 2.6777 14.1177h-33.1012c.2165-4.8377 1.1247-9.5765 2.6776-14.1177zm-2.6776 18.8235h33.1059c-.2306 4.8377-1.1341 9.5765-2.6918 14.1177h-27.7223c-1.5577-4.5412-2.4659-9.28-2.6918-14.1177zm37.8118 0h14.0141c-.3341 5.0683-1.7224 9.8542-3.9859 14.1177h-12.4424c1.4212-4.56 2.2071-9.2988 2.4142-14.1177zm0-4.7058c-.2024-4.8189-.9836-9.5577-2.4-14.1177h12.4282c2.2588 4.2635 3.6471 9.0494 3.9859 14.1177zm7.007-18.8236h-11.0776c-1.8447-4.4941-4.3106-8.7435-7.2942-12.70585 7.4259 2.15059 13.8259 6.68235 18.3718 12.70585zm-25.5435-13.98585c3.8776 4.22117 6.9835 8.94115 9.28 13.98585h-24.0094c2.2917-5.04 5.3929-9.75526 9.2706-13.97644.9364-.07059 1.8729-.14118 2.8329-.14118.8847 0 1.7553.07059 2.6259.13177zm-12.6635 1.34117c-2.96 3.94358-5.4165 8.17408-7.2471 12.64468h-10.8894c4.4941-5.9623 10.8094-10.46585 18.1365-12.64468zm-18.1365 54.99768h10.9035c1.84 4.4753 4.3059 8.7106 7.28 12.6541-7.3459-2.1694-13.68-6.6777-18.1835-12.6541zm25.3976 13.9764c-3.887-4.2211-7.0023-8.9364-9.3082-13.9764h23.9718c-2.3059 5.0447-5.4212 9.7647-9.313 13.9859-.8517.0611-1.7082.1317-2.5741.1317-.9412 0-1.8588-.0706-2.7765-.1412zm12.5224-1.2564c2.9929-3.9624 5.4776-8.2212 7.327-12.72h11.0965c-4.5553 6.0376-10.9741 10.5741-18.4235 12.72z" fill="#f5f5f5"/></svg>

<svg width="80" height="80" viewBox="0 0 80 80" fill="none" xmlns="http://www.w3.org/2000/svg">
<g clip-path="url(#clip0_701_241)">
<path d="M40 0C17.9435 0 0 17.9435 0 40C0 62.0565 17.9435 80 40 80C62.0565 80 80 62.0565 80 40C80 17.9435 62.0518 0 40 0ZM4.82353 42.3529H18.6447C18.8518 47.1718 19.6376 51.9106 21.0588 56.4706H8.80941C6.54588 52.2071 5.15765 47.4212 4.82353 42.3529ZM18.6447 37.6471H4.82353C5.15765 32.5788 6.54588 27.7929 8.80941 23.5294H21.0447C19.6282 28.0894 18.8471 32.8282 18.6447 37.6471ZM26.0282 23.5294H53.7741C55.3271 28.0706 56.2306 32.8094 56.4518 37.6471H23.3506C23.5671 32.8094 24.4753 28.0706 26.0282 23.5294ZM23.3506 42.3529H56.4565C56.2259 47.1906 55.3224 51.9294 53.7647 56.4706H26.0424C24.4847 51.9294 23.5765 47.1906 23.3506 42.3529ZM61.1624 42.3529H75.1765C74.8424 47.4212 73.4541 52.2071 71.1906 56.4706H58.7482C60.1694 51.9106 60.9553 47.1718 61.1624 42.3529ZM61.1624 37.6471C60.96 32.8282 60.1788 28.0894 58.7624 23.5294H71.1906C73.4494 27.7929 74.8377 32.5788 75.1765 37.6471H61.1624ZM68.1694 18.8235H57.0918C55.2471 14.3294 52.7812 10.08 49.7976 6.11765C57.2235 8.26824 63.6235 12.8 68.1694 18.8235ZM42.6259 4.83765C46.5035 9.05882 49.6094 13.7788 51.9059 18.8235H27.8965C30.1882 13.7835 33.2894 9.06824 37.1671 4.84706C38.1035 4.77647 39.04 4.70588 40 4.70588C40.8847 4.70588 41.7553 4.77647 42.6259 4.83765ZM29.9624 6.17882C27.0024 10.1224 24.5459 14.3529 22.7153 18.8235H11.8259C16.32 12.8612 22.6353 8.35765 29.9624 6.17882ZM11.8259 61.1765H22.7294C24.5694 65.6518 27.0353 69.8871 30.0094 73.8306C22.6635 71.6612 16.3294 67.1529 11.8259 61.1765ZM37.2235 75.1529C33.3365 70.9318 30.2212 66.2165 27.9153 61.1765H51.8871C49.5812 66.2212 46.4659 70.9412 42.5741 75.1624C41.7224 75.2235 40.8659 75.2941 40 75.2941C39.0588 75.2941 38.1412 75.2235 37.2235 75.1529ZM49.7459 73.8965C52.7388 69.9341 55.2235 65.6753 57.0729 61.1765H68.1694C63.6141 67.2141 57.1953 71.7506 49.7459 73.8965Z" fill="black"/>
</g>
<defs>
<clipPath id="clip0_701_241">
<rect width="80" height="80" fill="white"/>
</clipPath>
</defs>
</svg>
